!!!COM: Palestrina, Giovanni Perluigi da
!!!OPR: Ecce sacerdos magnus
!!!OTL: Benedictus
**kern	**kern	**kern
*Itenor	*Icalto	*Icant
!Tenor	!Altus	!Cantus
*clefGv2	*clefG2	*clefG2
*k[]	*k[]	*k[]
*G:mix	*G:mix	*G:mix
*M4/2	*M4/2	*M4/2
=1	=1	=1
0r	0g	0r
=2	=2	=2
0r	1f#	0r
.	[1g	.
=3	=3	=3
0r	2g]	0dd
.	4f	.
.	4e	.
.	2d	.
.	2f	.
=4	=4	=4
0r	2e	1cc#
.	2A	.
.	2B	[1dd
.	4G	.
.	4A	.
=5	=5	=5
0r	4B	2dd]
.	4c	.
.	4d	4cc
.	4e	4b
.	4f	2a
.	4g	.
.	[2a	2cc
=6	=6	=6
1r	4a]	1b
.	4g	.
.	1g	.
[1d	.	[1a
.	[2f	.
=7	=7	=7
1d]	2f]	1a]
.	4e	.
.	4d	.
1c#	1e	2r
.	.	2e
=8	=8	=8
1.d	1d	2f
.	.	4d
.	.	4e
.	1a	4f
.	.	4g
4c	.	4a
4B	.	4b
=9	=9	=9
2A	2a	4cc
.	.	4dd
2c	4g	2.ee
.	4f	.
1B	4g	.
.	4f	4dd
.	4e	[2dd
.	4d	.
=10	=10	=10
2A	1e	2dd]
2A	.	2cc#
2B	1d	[1dd
4G	.	.
4A	.	.
=11	=11	=11
4B	4G	1dd]
4c	4A	.
4d	4B	.
4e	4c	.
4f	4d	1a
4g	4e	.
[2a	2f	.
=12	=12	=12
4a]	2e	2b
4g	.	.
1g	2c	2cc
.	1d	1a
2f#	.	.
=13	=13	=13
1g	1r	2.b
.	.	4a
2.G	[1g	4b
.	.	4cc
.	.	[2dd
4A	.	.
=14	=14	=14
2B	1g]	2dd]
2c	.	4cc
.	.	4b
1d	1f#	1a
=15	=15	=15
0G	1.g	1r
.	.	[1dd
.	4f	.
.	4e	.
=16	=16	=16
0r	2d	1dd]
.	2f	.
.	1e	1cc#
=17	=17	=17
0r	2d	1.dd
.	4G	.
.	4A	.
.	4B	.
.	4G	.
.	4A	4cc
.	4B	4b
=18	=18	=18
1r	4c	2a
.	4d	.
.	1e	2cc
[1g	.	2.b
.	4d	.
.	4c	4cc
=19	=19	=19
1g]	2B	1dd
.	2G	.
1f#	1d	2r
.	.	2a
=20	=20	=20
1.g	1G	2b
.	.	4g
.	.	4a
.	1r	4b
.	.	4cc
4f	.	4dd
4e	.	4ee
=21	=21	=21
2d	1r	2ff
2f	.	1dd
1e	2r	.
.	2A	2cc#
=22	=22	=22
0d	2B	1dd
.	4G	.
.	4A	.
.	4B	2r
.	4c	.
.	4d	[2dd
.	4e	.
=23	=23	=23
2r	4f	2dd]
.	4g	.
2A	2.a	2cc#
2B	.	2.dd
.	4g	.
4G	[2g	.
4A	.	4cc
=24	=24	=24
4B	2g]	2b
4c	.	.
4d	2.f	4a
4e	.	4g
4f	.	4a
4g	4e	4b
[2a	2c	[2cc
=25	=25	=25
4a]	1e	4cc]
4g	.	4b
1g	.	2g
.	1d	1a
2f	.	.
=26	=26	=26
1e	2r	1g
.	2g	.
2d	2f	1r
[2c	2e	.
=27	=27	=27
2c]	2.d	2r
2B	.	2dd
.	4e	.
2A	2f	2cc
2G	[2g	2b
=28	=28	=28
2r	2g]	2.a
2d	2f	.
.	.	4b
2c	2e	2cc
2B	2d	[2dd
=29	=29	=29
1A	2e	2dd]
.	2e	2cc
2r	1d	2b
2d	.	[2a
=30	=30	=30
2c	1r	2a]
2B	.	2g#
2.A	2r	1a
.	2a	.
4B	.	.
=31	=31	=31
2c	2g	1r
1d	2f	.
.	2.e	2r
2c	.	2dd
.	4f	.
=32	=32	=32
2B	2g	2dd
2A	1a	2cc
1e	.	2.b
.	2g	.
.	.	4cc
=33	=33	=33
2d	2f	2dd
2c	2e	2.ee
2d	2.f	.
.	.	4dd
2d	.	[2dd
.	8e	.
.	8d	.
=34	=34	=34
1A	2e	2dd]
.	2e	2cc
1r	1d	2b
.	.	[2a
=35	=35	=35
1d	1r	4a]
.	.	4g
.	.	2f
2c	1g	2e
2B	.	2d
=36	=36	=36
2A	2f	1a
1c	2e	.
.	2.d	2r
2B	.	2dd
.	4e	.
=37	=37	=37
2A	2f	2cc
2G	1g	2b
1d	.	2.a
.	2f	.
.	.	4b
=38	=38	=38
1r	2e	2cc
.	2d	2dd
1g	2c	2ee
.	2B	[2dd
=39	=39	=39
2f	1A	2dd]
2e	.	2cc#
2.d	2.B	1dd
4e	4c	.
=40	=40	=40
2f	2d	2r
2g	2B	2dd
2a	1c	2cc
[2g	.	2b
=41	=41	=41
2g]	1d	2.a
2f	.	.
.	.	4b
2e	1r	2cc
2d	.	2dd
=42	=42	=42
2c	1g	2ee
2B	.	1dd
1A	2f	.
.	2e	2cc#
=43	=43	=43
2.B	2.d	2.dd
4c	4e	8cc
.	.	8b
2d	2f	2a
2e	[2g	2g
=44	=44	=44
1.d	2g]	1.a
.	4f	.
.	4e	.
.	2f#	.
2d	2f#	2a
=45	=45	=45
0G	0g	0b
*-	*-	*-
!! B.Hosanna
**kern	**kern	**kern	**kern
*Ibass	*Itenor	*Icalto	*Icant
!Bassus	!Tenor	!Altus	!Cantus
*clefF4	*clefGv2	*clefG2	*clefG2
*k[]	*k[]	*k[]	*k[]
*G:mix	*G:mix	*G:mix	*G:mix
*M3/2	*M3/2	*M3/2	*M3/2
=46	=46	=46	=46
1r	1r	1r	1dd
2r	2r	2r	2dd
=47	=47	=47	=47
1r	1r	1g	2b
.	.	.	1dd
2r	2r	2g	.
=48	=48	=48	=48
1r	1r	2e	2ee
.	.	1g	2.dd
2r	2r	.	.
.	.	.	4b
=49	=49	=49	=49
1r	1r	2a	2cc
.	.	2.g	2.b
2r	2r	.	.
.	.	4e	4cc
=50	=50	=50	=50
1r	1r	2f	2dd
.	.	2e	2cc
2r	2r	[2g	2b
=51	=51	=51	=51
1r	1d	4g]	1.a
.	.	4f	.
.	.	4f	.
.	.	4e	.
2r	2d	2f#	.
=52	=52	=52	=52
1G	2B	1g	1g
.	1d	.	.
2G	.	2r	2b
=53	=53	=53	=53
2E	2e	1g	2cc
1G	2.d	.	2b
.	.	2g	2dd
.	4B	.	.
=54	=54	=54	=54
2A	2c	2e	2cc
2.G	2d	1g	2.b
.	2e	.	.
4E	.	.	4cc
=55	=55	=55	=55
2F	1d	2a	2dd
1E	.	2.g	1ee
.	2c#	.	.
.	.	4e	.
=56	=56	=56	=56
2.D	1d	2.f	2a
.	.	.	2r
4E	.	4g	.
2F	2c	2a	2r
=57	=57	=57	=57
2G	2B	1g	1dd
1D	1A	.	.
.	.	2f#	2dd
=58	=58	=58	=58
2G	2G	2g	2b
2r	2g	2G	1dd
2r	2g	2B	.
=59	=59	=59	=59
2r	2e	2.c	2.ee
2c	1g	.	.
.	.	4d	4ff
2c	.	2e	4gg
.	.	.	4ee
=60	=60	=60	=60
2A	2a	2c	2ff
1c	2.g	2.cc	1ee
.	4e	4b	.
=61	=61	=61	=61
2d	2f	4a	2.dd
.	.	4g	.
1A	1e	1a	.
.	.	.	4cc#
.	.	.	2cc#
=62	=62	=62	=62
4D	2.f	2a	2dd
4E	.	.	.
4F	.	2r	2a
4G	4e	.	.
4A	2c	2r	2cc
4B	.	.	.
=63	=63	=63	=63
1c	2e	1g	2cc
.	1d	.	1dd
2B	.	2g	.
=64	=64	=64	=64
2c	2.c	2e	2.ee
2r	.	1g	.
.	4d	.	4dd
2r	2e	.	2b
=65	=65	=65	=65
1r	2A	2a	2cc
.	2B	2.g	2.b
2r	2c	.	.
.	.	4e	4a
=66	=66	=66	=66
1r	2d	2f	1a
.	1B	2.d	.
2r	.	.	2g#
.	.	4e	.
=67	=67	=67	=67
2r	2.A	2f	2a
1A	.	2e	1cc
.	4B	.	.
.	4c	2r	.
.	4d	.	.
=68	=68	=68	=68
2G	1e	2r	2b
2A	.	1a	4cc
.	.	.	4dd
2c	2r	.	4ee
.	.	.	4cc
=69	=69	=69	=69
2B-	1d	2g	4dd
.	.	.	4ee
1A	.	2a	2ff
.	2c	2cc	2ee
=70	=70	=70	=70
2G	2d	2b-	1r
2F	2f	2a	.
[2G	2e	[2g	2r
=71	=71	=71	=71
4G]	2.d	4g]	2r
4F	.	4a	.
2D	.	2b-	1dd
.	4c	.	.
2F	4A	2a	.
.	4B	.	.
=72	=72	=72	=72
2E	1c	2g	2cc
1D	.	2f	2dd
.	2B	2d	2ff
=73	=73	=73	=73
2C	1c	1e	1ee
2c	.	.	.
2B	2r	2r	2dd
=74	=74	=74	=74
2A	1r	1a	2cc
2.e	.	.	1b
.	2r	2g	.
4d	.	.	.
=75	=75	=75	=75
2c	2r	2a	1.a
2d	1d	1f	.
[2A	.	.	.
=76	=76	=76	=76
2A]	2c	2e	2r
2D	2d	1d	2r
2r	[2f	.	[2a
=77	=77	=77	=77
2r	4f]	2.c	2a]
.	4e	.	.
2r	2e	.	2g
.	.	4d	.
[2A	4c	2e	2a
.	4d	.	.
=78	=78	=78	=78
2A]	4e	2c	2cc
.	4f	.	.
2G	2g	2d	2.b
2A	2f	2c	.
.	.	.	4a
=79	=79	=79	=79
2c	2e	2r	1a
1B	2.d	2r	.
.	.	[2d	2g
.	4e	.	.
=80	=80	=80	=80
2.A	2f	2d]	2a
.	2e	2c	2ee
4G	.	.	.
2F	2r	2d	[2ff
=81	=81	=81	=81
2D	1d	2f	4ff]
.	.	.	4dd
1A	.	1e	2ee
.	2c	.	2a
=82	=82	=82	=82
2D	2d	2.d	2r
2r	1f	.	1dd
.	.	4e	.
2r	.	2f	.
=83	=83	=83	=83
1r	2e	2g	2cc
.	1d	1a	2dd
2r	.	.	2ff
=84	=84	=84	=84
1A	2.c	2r	2.ee
.	.	2e	.
.	4A	.	4dd
2G	2B	2g	2b
=85	=85	=85	=85
2A	1A	2f	2cc
1c	.	2.e	1a
.	2r	.	.
.	.	4f	.
=86	=86	=86	=86
2B	1d	1g	2g
1A	.	.	2a
.	2c	2f#	2cc
=87	=87	=87	=87
2G	1d	2g	2b
1D	.	2f	2.a
.	2f	2d	.
.	.	.	4b
=88	=88	=88	=88
2C	2e	2e	2cc
1D	2.d	2r	2b
.	.	2r	[2a
.	4c	.	.
=89	=89	=89	=89
2F	2A	1d	4a]
.	.	.	4f
1E	2B	.	2g
.	2G	2c	2e
=90	=90	=90	=90
1D	2.A	2d	2f
.	.	1f	2.a
.	4B	.	.
[2C	[2c	.	.
.	.	.	4g
=91	=91	=91	=91
2C]	4c]	2e	1g
.	4B	.	.
1D	1A	1d	.
.	.	.	2f#
=92	=92	=92	=92
[1.G	[1.G	[1.d	[1.g
=93	=93	=93	=93
1.G]	1.G]	1.d]	1.g]
==	==	==	==
*-	*-	*-	*-
!!!CDT: 1525/^1526/-1594/2/2
!!!OCY: Italia
!!!AGN: Mass (Tenor)
!!!AST: renaissance, vocal
!!!ASW: Antiphon
!!!PWK: Masses, Book I
!!!RNB: Cadence finals: D,C
!!!YOR: Le Opere Complete, v. 1, p. 1
!!!YOO: Rome, Italy: Fratelli Scalera
!!!END: 1992//
!!!EED: John Miller
!!!YEC: Copyright 2000, John Miller
!!!YEN: United States of America
!!!YEM: Rights to all derivative electronic formats reserved.
!!!YEM: Refer to licensing agreement for further details.
!!!YEM: This file must be accompanied by the licensing agreement.
!!!YEM: A copy of the licensing agreement may be found at http://www.music-cog.ohio-state.edu/HumdrumDatabases/Palestrina/license.txt
!!!EMD: converted to Humdrum by Bret Aarden
